X: 1
T: Khasidim tanz    [Bfr]
N: Handwritten MS
M: 2/4
L: 1/16
K: Bphr^d
|::: "B"Bddf feef | fdde "(Am)"ecce | "B"Td3c "Am"BABc |1,3 "B"d3B "(Am)"dcBA :|2,4 "B"B4- B2z2 :|
b2\
|::: "Am"a2c'b agfe | fgag f3e | defg agfe | decd "B"B4 :::|
|::: "Am"A2Bc A2Bc | A2Bc A3A | ^GABc dedc |1,3 "B"B4- B2B2 :|2,4 "B"B4- B2z2 :|
